!!!COM:	Bach, Johann Sebastian
!!!CDT:	1685/02/21/-1750/07/28/
!!!OTL@@DE:	Nun bitten wir den heiligen Geist
!!!SCT:	BWV 197/5
!!!PC#:	84
!!!AGN:	chorale
**harm	**kern	**kern	**kern	**kern
*	*ICvox	*ICvox	*ICvox	*ICvox
*	*Ibass	*Itenor	*Ialto	*Isoprn
*	*I"Bass	*I"Tenor	*I"Alto	*I"Soprano
*	*	*oclefC4	*oclefC3	*oclefC1
*	*clefF4	*clefGv2	*clefG2	*clefG2
*k[f#c#g#]	*k[f#c#g#]	*k[f#c#g#]	*k[f#c#g#]	*k[f#c#g#]
*A:	*A:	*A:	*A:	*A:
*M4/4	*M4/4	*M4/4	*M4/4	*M4/4
*met(c)	*met(c)	*met(c)	*met(c)	*met(c)
*MM100	*MM100	*MM100	*MM100	*MM100
I	4A	4c#	4e	4a
=1	=1	=1	=1	=1
V6	4G#	4B	4e	4b
V	8E	8G#L	8eL	8bL
V2	8DJ	8G#J	8eJ	8bJ
I6	4C#	4A	4e	4a
viio6	4D	4B	4d	4g#
=2	=2	=2	=2	=2
V2	8DL	8G#L	8BL	8eL
I6	8C#	8AJ	8c#J	8eJ
IV	8D	8F#	8AL	8f#L
viio6	8BBJ	8BJ	8dJ	8g#J
I6	8C#L	8EL	8c#L	8aL
vi	8F#J	8AJ	8c#J	8aJ
ii65	8DL	8AL	8f#L	8bL
V	8EJ	8G#J	8eJ	8bJ
=3	=3	=3	=3	=3
I;	2.AA;	2.c#;	2.e;	2.a;
I	4A	4e	4a	4cc#
=4	=4	=4	=4	=4
I	4A	4e	4cc#	4ee
IV6	4F#	4A	4dd	4ff#
V6	8G#L	8BL	8bL	8eeL
I	8AJ	8c#J	8aJ	8eeJ
V43	4B	4d	4g#	4ee
=5	=5	=5	=5	=5
V6/vi	8E#L	8G#L	8g#L	8cc#L
V7/vi	8C#J	8G#J	8e#J	8bJ
vi	4F#	4A	4c#	4a
IV	4D	4A	4d	4f#
viio6	4BB	4B	4d	4g#
=6	=6	=6	=6	=6
I;	2AA;	2E;	2c#;	2a;
I	4AA	4A	4enX	4cc#
I6	4C#	4A	4e	4cc#
=7	=7	=7	=7	=7
V	4E	4G#	4e	4b
V2	4D	4B	4g#	4b
f#:V7	2C#	2B	2e#	2cc#
=8	=8	=8	=8	=8
i;	4F#;	4c#;	4f#;	4a;
i	4F#	4c#	4f#	4a
A:viio64	8DL	8BL	8g#L	8bL
I6	8C#J	8AJ	8aJ	8cc#J
ii7	8BBL	8AL	8bL	8ddL
V7	8EJ	8G#J	8bJ	8ddJ
=9	=9	=9	=9	=9
I	4AA	4E	4a	4cc#
I6	8C#L	8AL	8aL	8cc#L
V65/IV	8C#J	8AJ	8gJ	8cc#J
IV;	2D;	2A;	2f#;	2a;
=10	=10	=10	=10	=10
ii6	8DL	8dL	8f#L	8bL
iii6	8EJ	8c#J	8g#XJ	8cc#J
IV65	8F#L	8c#L	8aL	8ddL
viio6	8G#J	8BJ	8bJ	8ddJ
I	4A	4c#	4a	4cc#
E:ii43	4c#	4e	4f#	4a
=11	=11	=11	=11	=11
V2	4A	4B	4d#	4f#
I6	4G#	4B	4e	4g#
I	4E	4B	4g#	4b
vi7	8C#L	8eL	8g#L	8bL
V65	8D#J	8BJ	8f#J	8aJ
=12	=12	=12	=12	=12
I	4E	4B	4e	4g#
V7	4BB	4A	4d#	4f#
I;	2E;	2G#;	2B;	2e;
=13	=13	=13	=13	=13
A:IV	4D	4A	4dnX	4f#
V2	4D	4B	4e	4g#
I6	8C#L	8c#L	8eL	8aL
vi	8F#J	8c#J	8c#J	8aJ
viio7/V	4D#	4c	4f#	4a
=14	=14	=14	=14	=14
V(54)	4E	4B	4e	4a
V7	4EE	4d	4e	4g#
I;	4AA;	4c#;	4e;	4a;
==	==	==	==	==
*-	*-	*-	*-	*-
!!!YOR1: 371 vierstimmige Choralges&auml;nge von Johann Sebastian Bach, 
!!!YOR2: 4th ed. by Alfred D&ouml;rffel (Leipzig: Breitkopf und H&auml;rtel, 
!!!YOR2: c.1875). 178 pp. Plate "V.A.10".  reprint: J.S. Bach, 371 Four-Part 
!!!YOR4: Chorales (New York: Associated Music Publishers, Inc., c.1940).
!!!SMS: B&H, 4th ed, Alfred D&ouml;rffel, c.1875, plate V.A.10
!!!EED:  Craig Stuart Sapp
!!!EEV:  2009/05/22
